X:1
T:I’ll Be Satisfied
T:I’ll Be Satisfied
T:T. W. Holland
T:Oscar Venable, 1917
T:Public Domain Courtesy of the Cyber Hymnal™
C:T. W. Holland
Z:Public Domain
Z:Courtesy of the Cyber Hymnal™
%%score ( 1 2 ) ( 3 4 )
L:1/8
Q:1/4=103
M:4/4
K:Bb
V:1 treble 
V:2 treble 
V:3 bass 
V:4 bass 
V:1
 [DF]2 [DB]2 [DF]2 [B,D]2 | [DF]>[^C=E] [DF]>[CG] [DF]3 [DF] | [EG]2 [EB]2 [EB]3 [EG] | [DF]6 z2 | %4
w: 1.~When my bark has|sailed a- cross the deep, And|touched the o- ther|side;|
w: 2.~When I leave this|world of sin and woe, With|Je- sus to a-|bide;|
w: 3.~Je- sus helps me|as I on- ward go, The|an- gry waves to|ride;|
 [Fd]>[=E^c] [Fd]>[Ec] [Fd]2 [FB]>[F=c] | [Fd]2 [Ec]2 [DB]2 F2 | [EG]2 [EB]2 [DB]3 [Ec] | %7
w: I will fear no ill, for my|Lord will keep, And|I’ll be sa- tis-|
w: Not a sin- gle sor- row I|then shall know, For|I’ll be sa- tis-|
w: He will guide my bark safe- ly|to the shore, Then|I’ll be sa- tis-|
 [DB]6 z2 ||"^Refrain" [Fd]>[Ec] [DB]>[EG] [DF]2 [B,D]2 | [DF]>[EG] [DF]>[EG] [DF]3 [B,D] | %10
w: fied.|||
w: fied.|I’ll be sa- tis- fied, yes,|I’ll be sa- tis- fied When|
w: fied.|||
 [CE]2 [A,C]2 [EA]3 [EG] | [DF]2 [CE]2 [B,D]2 [DF]2 | [Fd]>[=E^c] [Fd]>[Ec] ([Fd]2 [_A=c]2) | %13
w: |||
w: I have crossed the|roll- ing tide; The|an- gry storms may sweep, *|
w: |||
 [GB]>[Gc] [GB]>[EG] [DF]2 F2 | [EG]2 [EB]2 [DB]3 [Ec] | [DB]6 z2 |] %16
w: |||
w: But my Lord will keep, And|I’ll be sa- tis-|fied.|
w: |||
V:2
 x8 | x8 | x8 | x8 | x8 | x6 F2 | x8 | x8 || x8 | x8 | x8 | x8 | x8 | x6 F2 | x8 | x8 |] %16
V:3
 [B,,B,]2 [B,,F,]2 [B,,B,]2 [B,,F,]2 | [B,,B,]>[B,,B,] [B,,B,]>[B,,B,] [B,,B,]3 [B,,B,] | %2
 [E,B,]2 [E,G,]2 [E,G,]3 [E,B,] | [B,,B,]6 z2 | B,>B, B,>B, B,2 [D,B,]>[F,A,] | %5
 B,2 [F,A,]2 [G,B,]2 [D,B,]2 | [E,B,]2 [E,G,]2 F,3 F, | [B,,F,]6 z2 || %8
 [B,,B,]>[B,,F,] [B,,F,]>[B,,B,] [B,,B,]2 [B,,F,]2 | %9
 [B,,B,]>[B,,B,] [B,,B,]>[B,,B,] [B,,B,]3 [B,,F,] | F,2 F,2 [F,C]3 [F,A,] | %11
 [B,,B,]2 [B,,F,]2 [B,,F,]2 [B,,B,]2 | B,>B, B,>B, B,2 [D,B,]2 | %13
 [E,E]>[E,E] [E,E]>[E,B,] [B,,B,]2 [D,B,]2 | [E,B,]2 [E,G,]2 F,3 F, | [B,,F,]6 z2 |] %16
V:4
 x8 | x8 | x8 | x8 | B,>B, B,>B, B,2 x2 | B,2 x6 | x4 F,3 F, | x8 || x8 | x8 | F,2 F,2 x4 | x8 | %12
 B,>B, B,>B, B,2 x2 | x8 | x4 F,3 F, | x8 |] %16

